assets/Locomotive/Flat/locomotive_flat.svg

<svg width="32" height="32" viewBox="0 0 32 32" fill="none" xmlns="http://www.w3.org/2000/svg">
<path d="M6.52679 20C7.35522 20 8.02679 19.3284 8.02679 18.5C8.02679 17.6716 7.35522 17 6.52679 17C5.69837 17 5.02679 17.6716 5.02679 18.5C5.02679 19.3284 5.69837 20 6.52679 20Z" fill="#FFB02E"/>
<path d="M29.0268 28H8.02679V24H29.0268V26.67V28Z" fill="#1C1C1C"/>
<path d="M7.02679 9.41V7H17.0268V9.41C17.0268 9.79 16.8768 10.15 16.6068 10.42L15.0268 12V15.0041H9.00391V12L7.44679 10.42C7.17679 10.15 7.02679 9.79 7.02679 9.41Z" fill="#636363"/>
<path d="M7.02679 6L12 7L17.0268 6V4C17.0268 3.45 16.5768 3 16.0268 3H8.02679C7.47679 3 7.02679 3.45 7.02679 4V6ZM7.80679 24H23.5268V14H8.77679C7.25679 14 6.02679 15.23 6.02679 16.75V22.22C6.02679 23.2 6.82679 24 7.80679 24Z" fill="#636363"/>
<path d="M29.0168 24H19.0268V7.76001C19.0268 6.79001 19.8068 6.01001 20.7768 6.01001H27.2668C28.2368 6.01001 29.0168 6.79001 29.0168 7.76001V24ZM26.1268 14C26.6168 14 27.0268 13.6 27.0268 13.1V8.89999C27.0268 8.39999 26.6268 8 26.1268 8H21.9268C21.4268 8 21.0268 8.39999 21.0268 8.89999V13.1C21.0268 13.6 21.4268 14 21.9268 14H26.1268ZM7.0268 29H2.72679C2.07679 29 1.75678 28.22 2.21678 27.76L7.0268 23L8.0268 24V29H7.0268Z" fill="#F92F60"/>
<path d="M29.0268 22H6.02679V24H29.0268V22Z" fill="#D3D3D3"/>
<path d="M17.0268 6H7.02679V8H17.0268V6Z" fill="#FFB02E"/>
<path d="M21 29C22.6569 29 24 27.6569 24 26C24 27.6569 25.3431 29 27 29C28.6569 29 30 27.6569 30 26C30 24.3431 28.6569 23 27 23C25.3431 23 24 24.3431 24 26C24 24.3431 22.6569 23 21 23C19.3431 23 18 24.3431 18 26C18 27.6569 19.3431 29 21 29ZM13 27C13 28.1046 12.1046 29 11 29C9.89543 29 9 28.1046 9 27C9 25.8954 9.89543 25 11 25C12.1046 25 13 25.8954 13 27ZM15 29C13.8954 29 13 28.1046 13 27C13 25.8954 13.8954 25 15 25C16.1046 25 17 25.8954 17 27C17 28.1046 16.1046 29 15 29Z" fill="#636363"/>
<path d="M21 28C22.1046 28 23 27.1046 23 26C23 24.8954 22.1046 24 21 24C19.8954 24 19 24.8954 19 26C19 27.1046 19.8954 28 21 28ZM15 26H11C10.45 26 10 26.45 10 27C10 27.55 10.45 28 11 28H15C15.55 28 16 27.55 16 27C16 26.45 15.55 26 15 26ZM29 26C29 27.1046 28.1046 28 27 28C25.8954 28 25 27.1046 25 26C25 24.8954 25.8954 24 27 24C28.1046 24 29 24.8954 29 26Z" fill="#D3D3D3"/>
</svg>

<svg xmlns="http://www.w3.org/2000/svg" width="32" height="32" fill="none"><path fill="#FFB02E" d="M6.527 20a1.5 1.5 0 1 0 0-3 1.5 1.5 0 0 0 0 3Z"/><path fill="#1C1C1C" d="M29.027 28h-21v-4h21v4Z"/><path fill="#636363" d="M7.027 9.41V7h10v2.41c0 .38-.15.74-.42 1.01L15.027 12v3.004H9.004V12l-1.557-1.58c-.27-.27-.42-.63-.42-1.01Z"/><path fill="#636363" d="M7.027 6 12 7l5.027-1V4c0-.55-.45-1-1-1h-8c-.55 0-1 .45-1 1v2Zm.78 18h15.72V14H8.777c-1.52 0-2.75 1.23-2.75 2.75v5.47c0 .98.8 1.78 1.78 1.78Z"/><path fill="#F92F60" d="M29.017 24h-9.99V7.76c0-.97.78-1.75 1.75-1.75h6.49c.97 0 1.75.78 1.75 1.75V24Zm-2.89-10c.49 0 .9-.4.9-.9V8.9c0-.5-.4-.9-.9-.9h-4.2c-.5 0-.9.4-.9.9v4.2c0 .5.4.9.9.9h4.2Zm-19.1 15h-4.3c-.65 0-.97-.78-.51-1.24L7.027 23l1 1v5h-1Z"/><path fill="#D3D3D3" d="M29.027 22h-23v2h23v-2Z"/><path fill="#FFB02E" d="M17.027 6h-10v2h10V6Z"/><path fill="#636363" d="M21 29a3 3 0 0 0 3-3 3 3 0 1 0 6 0 3 3 0 0 0-6 0 3 3 0 1 0-3 3Zm-8-2a2 2 0 1 1-4 0 2 2 0 0 1 4 0Zm2 2a2 2 0 1 1 0-4 2 2 0 0 1 0 4Z"/><path fill="#D3D3D3" d="M21 28a2 2 0 1 0 0-4 2 2 0 0 0 0 4Zm-6-2h-4c-.55 0-1 .45-1 1s.45 1 1 1h4c.55 0 1-.45 1-1s-.45-1-1-1Zm14 0a2 2 0 1 1-4 0 2 2 0 0 1 4 0Z"/></svg>
